X:48
T:The New Banjo
C:Carole Ménard
R:Reel
M:2/2
K:D
|: fedc BAFA | BddB cdeA | fedc BAFA | Bddc d2A/d/e |
   fedc BAFA | BddB cBAF | GGGF GABd |1 cdef d3A :|2 cdef d3f ||
|: eAA/A/A cdea | fBFB d2f/e/d | eAAA cdeg | fedc A2de |
   fedc BAFA | BddB cBAF | GGGF GABd |1 cdef d3f :|2 cdef d3A ||

